X: 27402
T: Moggs Eye
R: jig
M: 6/8
K: Dmajor
d2A A2F|GAB A2F|d2A A2F|FED E2A|
d2A A2F|GAB A2F|GAB A2F|EFE D2A:|
D2F A2F|GAB A2F|D2F A2F|FED E2A|
D2F A2F|GAB A2F|GAB A2F|EFE D2A:|

